X: 0
T: A Babe Is Born In Bethlehem
Z: Melody of the XIV Century, Descant
Z: Copyright © 2004 by Douglas D. Anderson
Z: Released To The Public Domain
L: 1/4
M: 3/4
Q: 1/4=130
V: P1 name="Staff"
%%MIDI program 1 19
K: C
[V: P1]  A | A2 A | B2 B | (c B) A | G3 | (c2 d | c2) B | c2 c | c2 c | B2 A | (A B) ^G | A2 A | G2 A | B2 B | (c2 B | A2) ^G A2|]
w: A Babe is born in Beth-_ le hem: Beth-__ le hem. Great joy- aunce for Hie- ru_ sa lem. Al- le lu ya, Al- le__ lu ya.

